X:994
T:Independence Trail
R:Slide
C:Alasdair Fraser
S:SF Scottish Fiddlers handout
Z:Transcription, chords:Mike Long
M:12/8
L:1/8
K:G
DEF|\
"G"G3 GAB "C"c3 c2B|"D"ABA G2A "G"B2A G2F|"C"E3 e3 "G"d2B G2A|\
"G"B3 BAG "D"A2B c2d|
"C"e3 eg2 "D"f2e def|"G"g3 "D"f2d "C"e6|"G"d3 dcB "C"c3 B2c|\
"G"d2B G2D "Am"Ec2 c2B|"D"ABA G2F "G"G3:|
GBd|\
"G"g3 "D"f2d "C"e6|"G"d3 "C"eg2 "G"B3 A2G|"C"EG2 G2F "G"G3 G2E|\
"G"DG2 GAB "D"A3 ABd|
"G"g3 "D"f2d "C"e6|\
"G"d3 dcB "C"c3 B2c|"G"d2B G2D "Am"Ec2 c2B|"D"ABA G2F "G"G3|]
